public/editor-src/editor/icons/editor/woo-price.svg

<svg viewBox="0 0 16 16"><path fill="currentColor" fill-rule="nonzero" d="m15.7 7.3-7-7C8.5.1 8.3 0 8 0H3c-.3 0-.5.1-.7.3l-2 2c-.2.2-.3.4-.3.7v5c0 .3.1.5.3.7l7 7c.2.2.4.3.7.3.3 0 .5-.1.7-.3l7-7c.4-.4.4-1 0-1.4ZM4 5c-.6 0-1-.4-1-1s.4-1 1-1 1 .4 1 1-.4 1-1 1Z"/></svg>

<svg id="nc-woo-price" viewBox="0 0 16 16">
    <g stroke="none" stroke-width="1" fill-rule="evenodd">
    <path
        d="M15.7,7.3 L8.7,0.3 C8.5,0.1 8.3,0 8,0 L3,0 C2.7,0 2.5,0.1 2.3,0.3 L0.3,2.3 C0.1,2.5 0,2.7 0,3 L0,8 C0,8.3 0.1,8.5 0.3,8.7 L7.3,15.7 C7.5,15.9 7.7,16 8,16 C8.3,16 8.5,15.9 8.7,15.7 L15.7,8.7 C16.1,8.3 16.1,7.7 15.7,7.3 Z M4,5 C3.4,5 3,4.6 3,4 C3,3.4 3.4,3 4,3 C4.6,3 5,3.4 5,4 C5,4.6 4.6,5 4,5 Z"
        fill="currentColor"
        fill-rule="nonzero"
    ></path>
    </g>
</svg>
